Origami/24x24/apps/distributor-logo-korora.svg

<svg width="24" height="24" version="1" xmlns="http://www.w3.org/2000/svg">
 <path d="m15 2.5c-3.866 0-7 3.134-7 7s3.134 7 7 7 7-3.134 7-7v-6c0-0.55-0.446-1-1-1z" style="opacity:.2"/>
 <path d="m9 8.5c-3.866 0-7 3.134-7 7v6c0 0.55 0.446 1 1 1h6c3.866 0 7-3.134 7-7s-3.134-7-7-7z" style="opacity:.2"/>
 <path d="m15 2c-3.866 0-7 3.134-7 7s3.134 7 7 7 7-3.134 7-7v-6c0-0.55-0.446-1-1-1z" style="fill:#666666"/>
 <path d="m15 14.5c2.77 0 5-2.23 5-5v-5h-5c-2.77 0-5 2.23-5 5s2.23 5 5 5z" style="opacity:.2"/>
 <path d="m15 14c2.77 0 5-2.23 5-5v-5h-5c-2.77 0-5 2.23-5 5s2.23 5 5 5z" style="fill:#ececec"/>
 <path d="m15 2c-3.866 0-7 3.134-7 7 0 0.0845 0.0107 0.1662 0.0137 0.25 0.1329-3.7491 3.2053-6.75 6.9863-6.75h6c0.554 0 1 0.45 1 1v-0.5c0-0.55-0.446-1-1-1h-6z" style="fill:#ffffff;opacity:.1"/>
 <path d="m9 8c-3.866 0-7 3.134-7 7v6c0 0.55 0.446 1 1 1h6c3.866 0 7-3.134 7-7s-3.134-7-7-7z" style="fill:#808080"/>
 <path d="m9 10.5c-2.77 0-5 2.23-5 5v5h5c2.77 0 5-2.23 5-5s-2.23-5-5-5z" style="opacity:.2"/>
 <path d="m9 10c-2.77 0-5 2.23-5 5v5h5c2.77 0 5-2.23 5-5s-2.23-5-5-5z" style="fill:#ffffff"/>
 <path d="m9 8c-3.866 0-7 3.134-7 7v0.5c0-3.866 3.134-7 7-7 3.781 0 6.853 3.001 6.986 6.75 3e-3 -0.084 0.014-0.165 0.014-0.25 0-3.866-3.134-7-7-7z" style="fill:#ffffff;opacity:.2"/>
</svg>

<svg xmlns="http://www.w3.org/2000/svg" width="24" height="24" version="1">
 <path style="opacity:0.2" d="M 15,2.5 C 11.134,2.5 8,5.634 8,9.5 8,13.366 11.134,16.5 15,16.5 18.866,16.5 22,13.366 22,9.5 V 3.5 C 22,2.95 21.554,2.5 21,2.5 Z"/>
 <path style="opacity:0.2" d="M 9,8.5 C 5.134,8.5 2,11.634 2,15.5 V 21.5 C 2,22.05 2.446,22.5 3,22.5 H 9 C 12.866,22.5 16,19.366 16,15.5 16,11.634 12.866,8.5 9,8.5 Z"/>
 <path style="fill:#666666" d="M 15,2 C 11.134,2 8,5.134 8,9 8,12.866 11.134,16 15,16 18.866,16 22,12.866 22,9 V 3 C 22,2.45 21.554,2 21,2 Z"/>
 <path style="opacity:0.2" d="M 15,14.5 C 17.77,14.5 20,12.27 20,9.5 V 4.5 H 15 C 12.23,4.5 10,6.73 10,9.5 10,12.27 12.23,14.5 15,14.5 Z"/>
 <path style="fill:#ececec" d="M 15,14 C 17.77,14 20,11.77 20,9 V 4 H 15 C 12.23,4 10,6.23 10,9 10,11.77 12.23,14 15,14 Z"/>
 <path style="opacity:0.1;fill:#ffffff" d="M 15 2 C 11.134 2 8 5.134 8 9 C 8 9.0845 8.0107 9.1662 8.0137 9.25 C 8.1466 5.5009 11.219 2.5 15 2.5 L 21 2.5 C 21.554 2.5 22 2.95 22 3.5 L 22 3 C 22 2.45 21.554 2 21 2 L 15 2 z"/>
 <path style="fill:#808080" d="M 9,8 C 5.134,8 2,11.134 2,15 V 21 C 2,21.55 2.446,22 3,22 H 9 C 12.866,22 16,18.866 16,15 16,11.134 12.866,8 9,8 Z"/>
 <path style="opacity:0.2" d="M 9,10.5 C 6.23,10.5 4,12.73 4,15.5 V 20.5 H 9 C 11.77,20.5 14,18.27 14,15.5 14,12.73 11.77,10.5 9,10.5 Z"/>
 <path style="fill:#ffffff" d="M 9,10 C 6.23,10 4,12.23 4,15 V 20 H 9 C 11.77,20 14,17.77 14,15 14,12.23 11.77,10 9,10 Z"/>
 <path style="opacity:0.2;fill:#ffffff" d="M 9 8 C 5.134 8 2 11.134 2 15 L 2 15.5 C 2 11.634 5.134 8.5 9 8.5 C 12.781 8.5 15.853 11.501 15.986 15.25 C 15.989 15.166 16 15.085 16 15 C 16 11.134 12.866 8 9 8 z"/>
</svg>
